dist/assets/img/questions/8/answers/3_1200.svg

<svg width="521" height="234" viewBox="0 0 521 234" fill="none" xmlns="http://www.w3.org/2000/svg">
<g filter="url(#filter0_di_1419_50246)">
<path fill-rule="evenodd" clip-rule="evenodd" d="M65.997 28C61.8938 28 58.4559 31.1043 58.0385 35.1862L40.0423 211.186C39.5601 215.902 43.2607 220 48.0008 220H439.285C443.388 220 446.826 216.896 447.244 212.814L451.373 172.428C451.821 168.048 455.755 164.811 459.986 166.03C469.021 168.634 476.504 173.587 480.453 176.201C480.513 176.241 480.59 176.184 480.57 176.115C477.622 165.949 467.762 158.437 458.916 153.842C455.783 152.214 453.777 148.922 454.136 145.41L465.24 36.8138C465.722 32.0983 462.021 28 457.281 28H65.997Z" fill="#FFF0CB"/>
</g>
<defs>
<filter id="filter0_di_1419_50246" x="0" y="0" width="520.572" height="272" filterUnits="userSpaceOnUse" color-interpolation-filters="sRGB">
<feFlood flood-opacity="0" result="BackgroundImageFix"/>
<feColorMatrix in="SourceAlpha" type="matrix" values="0 0 0 0 0 0 0 0 0 0 0 0 0 0 0 0 0 0 127 0" result="hardAlpha"/>
<feOffset dy="12"/>
<feGaussianBlur stdDeviation="20"/>
<feComposite in2="hardAlpha" operator="out"/>
<feColorMatrix type="matrix" values="0 0 0 0 1 0 0 0 0 1 0 0 0 0 1 0 0 0 1 0"/>
<feBlend mode="normal" in2="BackgroundImageFix" result="effect1_dropShadow_1419_50246"/>
<feBlend mode="normal" in="SourceGraphic" in2="effect1_dropShadow_1419_50246" result="shape"/>
<feColorMatrix in="SourceAlpha" type="matrix" values="0 0 0 0 0 0 0 0 0 0 0 0 0 0 0 0 0 0 127 0" result="hardAlpha"/>
<feOffset dy="-4"/>
<feGaussianBlur stdDeviation="4"/>
<feComposite in2="hardAlpha" operator="arithmetic" k2="-1" k3="1"/>
<feColorMatrix type="matrix" values="0 0 0 0 0.883659 0 0 0 0 0.635314 0 0 0 0 0.0558422 0 0 0 0.4 0"/>
<feBlend mode="normal" in2="shape" result="effect2_innerShadow_1419_50246"/>
</filter>
</defs>
</svg>

<svg width="521" height="234" viewBox="0 0 521 234" fill="none" xmlns="http://www.w3.org/2000/svg"><g filter="url(#filter0_di_1419_50246)"><path fill-rule="evenodd" clip-rule="evenodd" d="M65.997 28a8 8 0 00-7.959 7.186l-17.996 176c-.482 4.716 3.219 8.814 7.959 8.814h391.284a8 8 0 007.959-7.186l4.129-40.386c.448-4.38 4.382-7.617 8.613-6.398 9.035 2.604 16.518 7.557 20.467 10.171.06.04.137-.017.117-.086-2.948-10.166-12.808-17.678-21.654-22.273-3.133-1.628-5.139-4.92-4.78-8.432L465.24 36.814c.482-4.716-3.219-8.814-7.959-8.814H65.997z" fill="#FFF0CB"/></g><defs><filter id="filter0_di_1419_50246" x="0" y="0" width="520.572" height="272" filterUnits="userSpaceOnUse" color-interpolation-filters="sRGB"><feFlood flood-opacity="0" result="BackgroundImageFix"/><feColorMatrix in="SourceAlpha" values="0 0 0 0 0 0 0 0 0 0 0 0 0 0 0 0 0 0 127 0" result="hardAlpha"/><feOffset dy="12"/><feGaussianBlur stdDeviation="20"/><feComposite in2="hardAlpha" operator="out"/><feColorMatrix values="0 0 0 0 1 0 0 0 0 1 0 0 0 0 1 0 0 0 1 0"/><feBlend in2="BackgroundImageFix" result="effect1_dropShadow_1419_50246"/><feBlend in="SourceGraphic" in2="effect1_dropShadow_1419_50246" result="shape"/><feColorMatrix in="SourceAlpha" values="0 0 0 0 0 0 0 0 0 0 0 0 0 0 0 0 0 0 127 0" result="hardAlpha"/><feOffset dy="-4"/><feGaussianBlur stdDeviation="4"/><feComposite in2="hardAlpha" operator="arithmetic" k2="-1" k3="1"/><feColorMatrix values="0 0 0 0 0.883659 0 0 0 0 0.635314 0 0 0 0 0.0558422 0 0 0 0.4 0"/><feBlend in2="shape" result="effect2_innerShadow_1419_50246"/></filter></defs></svg>
